!!!OTL: 165. Die arme Spinnerin.
!!!ODT: 1892
!!!ARE: Europa, Mitteleuropa, Deutschland, Wetterau
!!!SCT: B0165
!!!TXL: @@DE
!!!YEM: Copyright 1995, estate of Helmut Schaffrath.
**kern	**text
*ICvox	*
*Ivox	*
*M6/8	*
*clefG2	*
*k[f#]	*
*G:	*
{8d	A._Jm
=1	=1
4g	Schat-
8g	-ten
8gL	grü-
8f#J	.
8g	-ner
=2	=2
(4b/	Bäu-
8a)	.
4g}	-me
{8d	ſchlaf
=3	=3
4a	ich
8a	ſo
4a	ſanft
8b	al-
=4	=4
(4cc	-lei-
8b)	.
4a}	-ne
{8dd	in
=5	=5
4dd	ſtil-
8f#	-ler
8gL	Ein-
8aJ	.
8b	-ſam-
=6	=6
4.a	-keit.
4r}	.
{8dd	in
=7	=7
4dd	ſtil-
8f#	-ler
8gL	Ein-
8aJ	.
8b	-ſam-
=8	=8
4.a	-keit.
4r}	.
{8a	Jch
=9	=9
4a	küm-
8dd	-mer'
4a	mich
8g	gar
=10	=10
8g	we-
8f#	-nig,
8r	.
4r}	.
{8a	ich
=11	=11
4a	frag
8dd	nach
4a	kei-
8g	-nem
=12	=12
8g	Kö-
8f#	-nig
8r	.
4r}	.
{8d	und
=13	=13
4g	le-
8b	-be
4b	ſo
8ee	wie
=14	=14
(4.dd	du,
4b)}	.
{8dd	und
=15	=15
4dd	le-
8cc	-be
4a	ſo
8b	wie
=16	=16
4.g	du.
4r}	.
==	==
!!!AGN: Ballade, Romanze
!!!GTL: Balladen und Romanzen
!!!ONB: ESAC (Essen Associative Code) Database: BOEHME
!!!AMT: compound duple
!!!AIN: vox
!!!EED: Helmut Schaffrath
!!!EEV: 1.0
!!A. Aus der Wetterau. 1892.
!!!URL-scan: https://archive.org/details/BoehmeVtLieder1895/page/n163/mode/2up
!!!ENC: Anna Maria Matuszewska
!!!EEV: 2024/19/06
*-	*-
